packages/core/src/svgs/tokens/branded/PNG.svg

<svg width="24" height="24" viewBox="0 0 24 24" fill="none" xmlns="http://www.w3.org/2000/svg">
<path d="M8.45331 6.70584L7.93566 8.29407L11.2298 10.694L8.61213 12.5881L5.52979 10.3352L6.70625 6.70584H8.45331ZM9.06507 6.70584L11.7063 8.62937V10.3234L8.61802 8.07643L9.06507 6.70584ZM8.62389 13.2999L8.61802 13.3235L11.7063 15.5705V11.0588L8.62389 13.294V13.2999ZM9.1886 14.4588L11.7003 16.2882H11.7063V18.4706L8.61802 16.2235L9.19449 14.4588H9.1886Z" fill="#E1AA00"/>
<path d="M15.5474 6.70584H17.2944L18.4709 10.347L15.3827 12.5881L12.7826 10.6882L16.065 8.30583L15.5474 6.70584ZM12.2944 8.62937L14.9414 6.70584L15.3827 8.07643L12.2944 10.3177V8.62348V8.62937ZM15.3768 13.2999L12.3003 11.0646H12.2944V15.5705L15.3827 13.3235L15.3768 13.2999ZM12.2944 16.294L14.8121 14.4647L15.3827 16.2294L12.2944 18.4706V16.2882V16.294Z" fill="#FFC800"/>
<path fill-rule="evenodd" clip-rule="evenodd" d="M12 21.4117C14.4961 21.4117 16.8901 20.4202 18.6551 18.6551C20.4202 16.89 21.4117 14.4961 21.4117 12C21.4117 9.50377 20.4202 7.10991 18.6551 5.34487C16.8901 3.57982 14.4961 2.58823 12 2.58823C9.5039 2.58823 7.10991 3.57982 5.34487 5.34487C3.57983 7.10991 2.58823 9.50377 2.58823 12C2.58823 14.4961 3.57983 16.89 5.34487 18.6551C7.10991 20.4202 9.5039 21.4117 12 21.4117ZM12 22C14.6522 22 17.1957 20.9464 19.0711 19.071C20.9464 17.1957 22 14.6522 22 12C22 9.34785 20.9464 6.80429 19.0711 4.92892C17.1957 3.05357 14.6522 2 12 2C9.34784 2 6.80429 3.05357 4.92892 4.92892C3.05357 6.80429 2 9.34785 2 12C2 14.6522 3.05357 17.1957 4.92892 19.071C6.80429 20.9464 9.34784 22 12 22Z" fill="#FFC800"/>
</svg>

<svg xmlns="http://www.w3.org/2000/svg" width="24" height="24" fill="none" viewBox="0 0 24 24">
    <path fill="#E1AA00" d="m8.453 6.706-.517 1.588 3.294 2.4-2.618 1.894-3.082-2.253 1.176-3.63zm.612 0 2.641 1.923v1.694L8.618 8.076zM8.624 13.3l-.006.023 3.088 2.247v-4.51l-3.082 2.235zm.565 1.159 2.511 1.83h.006v2.182l-3.088-2.247.576-1.765z"/>
    <path fill="#FFC800" d="M15.547 6.706h1.747l1.177 3.641-3.088 2.241-2.6-1.9 3.282-2.382zm-3.253 1.923 2.647-1.923.442 1.37-3.089 2.242V8.623zm3.083 4.67L12.3 11.066h-.006v4.506l3.089-2.248zm-3.083 2.995 2.518-1.83.57 1.765-3.088 2.242v-2.183z"/>
    <path fill="#FFC800" fill-rule="evenodd" d="M12 21.412a9.411 9.411 0 1 0 0-18.823 9.411 9.411 0 0 0 0 18.823M12 22a10 10 0 1 0 0-20 10 10 0 0 0 0 20" clip-rule="evenodd"/>
</svg>
